X:335
T:Findjian
Z:Jack Campin, http://www.campin.me.uk/
F:Jack Campin's Nine-Note Tunebook
% last edit 03-02-2013
S:http://www.duduk.com
M:2/4
L:1/16
Q:1/4=120
K:G
   E2z2   E2B2- |B2(Bd) B4  |(E=FED) E2B2-|B2(Bd) B4||
|:(BcBA) (AB)G2-|G2G2   A2B2|(BcBA) (AB)G2|G2(FA) G4:|
  (E=FED) E2B2- |B2(Bd) B4  | E2(ED) E2B2-|B2(Bd) B4||
|:(BcBA) (ABAG  |G2)G2  A2B2|(BcBA   ABAG)|G2(FA) G4:|

